www/assets/icons/widgets.svg

<svg width="24" height="24" viewBox="0 0 24 24" xmlns="http://www.w3.org/2000/svg" fill='currentColor'><path d="M12.34 13.6552V21.6552H20.34V13.6552H12.34ZM2.34 21.6552H10.34V13.6552H2.34V21.6552ZM2.34 3.65521V11.6552H10.34V3.65521H2.34ZM16 2.34521L10.34 7.99521L16 13.6552L21.66 7.99521L16 2.34521Z"/></svg>

<svg xmlns="http://www.w3.org/2000/svg" width="24" height="24" viewBox="0 0 24 24" fill='currentColor'><path d="M12.34 13.655v8h8v-8zm-10 8h8v-8h-8zm0-18v8h8v-8zM16 2.345l-5.66 5.65 5.66 5.66 5.66-5.66z"/></svg>
